public/facebookbig.svg

<svg width="32" height="32" viewBox="0 0 32 32" fill="none" xmlns="http://www.w3.org/2000/svg">
<circle cx="16" cy="16" r="15.6" fill="#131D0E" stroke="#FCFCFC" stroke-width="0.8"/>
<path d="M17.0665 16.9599H18.5903L19.1998 14.3999H17.0665V13.1199C17.0665 12.4607 17.0665 11.8399 18.2855 11.8399H19.1998V9.68945C19.0011 9.66193 18.2508 9.59985 17.4584 9.59985C15.8035 9.59985 14.6284 10.6603 14.6284 12.6079V14.3999H12.7998V16.9599H14.6284V22.3999H17.0665V16.9599Z" fill="#FCFCFC"/>
</svg>

<svg xmlns="http://www.w3.org/2000/svg" width="32" height="32" fill="none" viewBox="0 0 32 32"><circle cx="16" cy="16" r="15.6" fill="#131d0e" stroke="#fcfcfc" stroke-width=".8"/><path fill="#fcfcfc" d="M17.067 16.96h1.523l.61-2.56h-2.133v-1.28c0-.66 0-1.28 1.218-1.28h.915V9.69c-.199-.028-.95-.09-1.742-.09-1.654 0-2.83 1.06-2.83 3.008V14.4H12.8v2.56h1.828v5.44h2.439z"/></svg>
